src/assets/img/rutube.svg

<svg width="26" height="25" viewBox="0 0 26 25" fill="none" xmlns="http://www.w3.org/2000/svg">
<mask id="mask0_6108_3531" style="mask-type:luminance" maskUnits="userSpaceOnUse" x="0" y="0" width="26" height="25">
<path d="M19.6411 0H6.80325C3.44476 0 0.722168 2.72259 0.722168 6.08108V18.9189C0.722168 22.2774 3.44476 25 6.80325 25H19.6411C22.9996 25 25.7222 22.2774 25.7222 18.9189V6.08108C25.7222 2.72259 22.9996 0 19.6411 0Z" fill="white"/>
</mask>
<g mask="url(#mask0_6108_3531)">
<path d="M25.7841 0.000244141H0.722168V25.0622H25.7841V0.000244141Z" fill="#100943"/>
<path d="M25.7212 12.5C32.6247 12.5 38.2212 6.90355 38.2212 -8.58307e-06C38.2212 -6.90357 32.6247 -12.5 25.7212 -12.5C18.8176 -12.5 13.2212 -6.90357 13.2212 -8.58307e-06C13.2212 6.90355 18.8176 12.5 25.7212 12.5Z" fill="#ED143B"/>
<path d="M16.1647 11.9293H8.7788V9.00658H16.1647C16.5962 9.00658 16.8961 9.08178 17.0466 9.2131C17.1972 9.34441 17.2905 9.58798 17.2905 9.94372V10.9932C17.2905 11.3681 17.1972 11.6117 17.0466 11.743C16.8961 11.8743 16.5962 11.9304 16.1647 11.9304V11.9293ZM16.6714 6.25112H5.64648V18.75H8.7788V14.6836H14.5513L17.2905 18.75H20.7981L17.7781 14.6646C18.8914 14.4995 19.3914 14.1583 19.8037 13.596C20.216 13.0337 20.4228 12.1347 20.4228 10.9348V9.99768C20.4228 9.28605 20.3475 8.72374 20.216 8.29274C20.0846 7.86174 19.8599 7.48687 19.5408 7.15015C19.2038 6.83139 18.8285 6.60692 18.3779 6.45652C17.9275 6.32521 17.3646 6.25 16.6714 6.25V6.25112Z" fill="white"/>
</g>
</svg>

<svg xmlns="http://www.w3.org/2000/svg" width="26" height="25" fill="none"><mask id="a" width="26" height="25" x="0" y="0" maskUnits="userSpaceOnUse" style="mask-type:luminance"><path fill="#fff" d="M19.641 0H6.803a6.081 6.081 0 0 0-6.08 6.081V18.92A6.081 6.081 0 0 0 6.802 25h12.838a6.081 6.081 0 0 0 6.081-6.081V6.08A6.081 6.081 0 0 0 19.642 0Z"/></mask><g mask="url(#a)"><path fill="#100943" d="M25.784 0H.722v25.062h25.062V0Z"/><path fill="#ED143B" d="M25.721 12.5c6.904 0 12.5-5.596 12.5-12.5s-5.596-12.5-12.5-12.5c-6.903 0-12.5 5.596-12.5 12.5s5.597 12.5 12.5 12.5Z"/><path fill="#fff" d="M16.165 11.93H8.779V9.006h7.386c.431 0 .731.075.882.206.15.131.244.375.244.73v1.05c0 .375-.094.619-.244.75s-.45.187-.882.187Zm.506-5.679H5.646V18.75H8.78v-4.066h5.772l2.74 4.066h3.507l-3.02-4.085c1.113-.165 1.613-.507 2.026-1.069.412-.562.619-1.461.619-2.661v-.937c0-.712-.075-1.274-.207-1.705a2.84 2.84 0 0 0-.675-1.143 3.052 3.052 0 0 0-1.163-.693c-.45-.132-1.013-.207-1.707-.207v.001Z"/></g></svg>
